staff/modal-close.svg

<svg width="24" height="24" viewBox="0 0 24 24" fill="none" xmlns="http://www.w3.org/2000/svg">
    <path fill-rule="evenodd" clip-rule="evenodd"
          d="M11.7071 11L18.7071 4L19.4142 4.70711L12.4142 11.7071L19.4142 18.7071L18.7071 19.4142L11.7071 12.4142L4.70711 19.4142L4 18.7071L11 11.7071L4 4.70711L4.70711 4L11.7071 11Z"
          fill="black" />
</svg>

<svg width="24" height="24" fill="none" xmlns="http://www.w3.org/2000/svg">
    <path fill-rule="evenodd" clip-rule="evenodd"
          d="M11.707 11l7-7 .707.707-7 7 7 7-.707.707-7-7-7 7L4 18.707l7-7-7-7L4.707 4l7 7z" fill="#000" />
</svg>
